; generated by PrusaSlicer 2.1.0+win64 on 2020-03-13 at 21:17:32 UTC

; 

; external perimeters extrusion width = 0.45mm
; perimeters extrusion width = 0.45mm
; infill extrusion width = 0.45mm
; solid infill extrusion width = 0.45mm
; top infill extrusion width = 0.40mm
; first layer extrusion width = 0.42mm

M73 P0 R92
M73 Q0 S93
M201 X1000 Y1000 Z1000 E5000 ; sets maximum accelerations, mm/sec^2
M203 X200 Y200 Z12 E120 ; sets maximum feedrates, mm/sec
M204 P1250 R1250 T1250 ; sets acceleration (P, T) and retract acceleration (R), mm/sec^2
M205 X8.00 Y8.00 Z0.40 E1.50 ; sets the jerk limits, mm/sec
M205 S0 T0 ; sets the minimum extruding and travel feed rate, mm/sec
M107
M862.3 P "MK3S" ; printer model check
M862.1 P0.4 ; nozzle diameter check
M115 U3.8.1 ; tell printer latest fw version
G90 ; use absolute coordinates
M83 ; extruder relative mode
M104 S215 ; set extruder temp
M140 S60 ; set bed temp
M190 S60 ; wait for bed temp
M109 S215 ; wait for extruder temp
G28 W ; home all without mesh bed level
G80 ; mesh bed leveling
G1 Y-3.0 F1000.0 ; go outside print area
G92 E0.0
G1 X60.0 E9.0 F1000.0 ; intro line
M73 Q0 S93
M73 P0 R92
G1 X100.0 E12.5 F1000.0 ; intro line
G92 E0.0
M221 S95
G21 ; set units to millimeters
G90 ; use absolute coordinates
M83 ; use relative distances for extrusion
M900 K30 ; Filament gcode
;BEFORE_LAYER_CHANGE
G92 E0.0
;0.2


G1 E-0.80000 F2100.00000
G1 Z0.600 F10800.000
;AFTER_LAYER_CHANGE
;0.2
G1 X64.340 Y90.726
G1 Z0.200
G1 E0.80000 F2100.00000
M204 S1000
G1 F1200
G1 X65.076 Y89.602 E0.04213
G1 X65.765 Y88.932 E0.03012
G1 X66.550 Y88.423 E0.02935
G1 X67.770 Y87.955 E0.04095
G1 X68.976 Y87.811 E0.03811
G1 X181.977 Y87.811 E3.54306
G1 X182.804 Y87.975 E0.02642
G1 X183.510 Y88.441 E0.02653
G1 X183.985 Y89.137 E0.02642
G1 X184.162 Y89.965 E0.02653
G1 X184.159 Y120.113 E0.94528
G1 X184.016 Y120.786 E0.02157
G1 X183.669 Y121.384 E0.02168
G1 X183.156 Y121.842 E0.02157
G1 X182.522 Y122.119 E0.02168
G1 X181.976 Y122.189 E0.01726
G1 X68.908 Y122.187 E3.54518
G1 X67.861 Y122.067 E0.03305
G1 X66.958 Y121.772 E0.02976
G1 X65.767 Y121.070 E0.04337
G1 X64.818 Y120.066 E0.04331
G1 X64.331 Y119.254 E0.02969
G1 X63.981 Y118.257 E0.03313
G1 X63.838 Y117.050 E0.03811
G1 X63.838 Y92.947 E0.75572
G1 X63.928 Y92.022 E0.02916
G1 X64.322 Y90.783 E0.04074
G1 F8640
G1 X65.076 Y89.602 E-0.32362
G1 X65.765 Y88.932 E-0.22184
G1 X66.545 Y88.427 E-0.21454
G1 E-0.04000 F2100.00000
G1 Z0.800 F10800.000
G1 X136.164 Y113.816
G1 Z0.200
G1 E0.80000 F2100.00000
G1 F1200
G1 X159.512 Y113.816 E0.73207
G1 X159.512 Y118.884 E0.15891
G1 X136.164 Y118.884 E0.73207
G1 X136.164 Y113.876 E0.15703
G1 X136.541 Y114.193 F10800.000
G1 F1200
G1 X159.135 Y114.193 E0.70842
G1 X159.135 Y118.507 E0.13527
G1 X136.541 Y118.507 E0.70842
G1 X136.541 Y114.253 E0.13339
G1 X136.918 Y114.570 F10800.000
G1 F1200
G1 X158.758 Y114.570 E0.68478
G1 X158.758 Y118.130 E0.11162
G1 X136.918 Y118.130 E0.68478
G1 X136.918 Y114.630 E0.10974
G1 X136.737 Y114.213 F10800.000
G1 F8640
G1 X140.209 Y114.621 E-0.76000
G1 E-0.04000 F2100.00000
G1 Z0.800 F10800.000
G1 X140.976 Y109.470
G1 Z0.200
G1 E0.80000 F2100.00000
G1 F1200
G1 X140.082 Y109.564 E0.02820
G1 X129.970 Y109.564 E0.31704
G1 X129.076 Y109.470 E0.02820
G1 X128.167 Y109.175 E0.02996
G1 X127.340 Y108.697 E0.02996
G1 X126.630 Y108.058 E0.02996
G1 X126.069 Y107.285 E0.02996
G1 X125.680 Y106.412 E0.02996
G1 X125.492 Y105.530 E0.02829
G1 X125.480 Y104.528 E0.03140
G1 X125.680 Y103.588 E0.03014
G1 X126.069 Y102.715 E0.02996
G1 X126.630 Y101.942 E0.02996
G1 X127.340 Y101.303 E0.02996
G1 X128.167 Y100.825 E0.02996
G1 X129.076 Y100.530 E0.02996
G1 X129.970 Y100.436 E0.02820
G1 X140.082 Y100.436 E0.31704
G1 X140.976 Y100.530 E0.02820
G1 X141.885 Y100.825 E0.02996
G1 X142.712 Y101.303 E0.02996
G1 X143.422 Y101.942 E0.02996
G1 X143.984 Y102.715 E0.02996
G1 X144.373 Y103.588 E0.02996
G1 X144.571 Y104.522 E0.02996
G1 X144.571 Y105.478 E0.02996
G1 X144.373 Y106.412 E0.02996
G1 X143.984 Y107.285 E0.02996
G1 X143.422 Y108.058 E0.02996
G1 X142.712 Y108.697 E0.02996
G1 X141.885 Y109.175 E0.02996
G1 X141.033 Y109.452 E0.02807
G1 X140.917 Y109.093 F10800.000
G1 F1200
G1 X140.062 Y109.187 E0.02696
G1 X129.990 Y109.187 E0.31580
G1 X129.155 Y109.099 E0.02634
G1 X128.322 Y108.829 E0.02747
G1 X127.563 Y108.390 E0.02747
G1 X126.912 Y107.804 E0.02747
G1 X126.397 Y107.095 E0.02747
G1 X126.041 Y106.295 E0.02747
G1 X125.869 Y105.488 E0.02588
G1 X125.858 Y104.565 E0.02892
G1 X126.041 Y103.705 E0.02758
G1 X126.397 Y102.905 E0.02747
G1 X126.912 Y102.196 E0.02747
G1 X127.563 Y101.610 E0.02747
G1 X128.322 Y101.171 E0.02747
G1 X129.155 Y100.901 E0.02747
G1 X129.990 Y100.813 E0.02634
G1 X140.062 Y100.813 E0.31580
G1 X140.898 Y100.901 E0.02634
G1 X141.731 Y101.171 E0.02747
G1 X142.490 Y101.610 E0.02747
G1 X143.141 Y102.196 E0.02747
G1 X143.656 Y102.905 E0.02747
G1 X144.012 Y103.705 E0.02747
G1 X144.194 Y104.562 E0.02747
G1 X144.194 Y105.438 E0.02747
G1 X144.012 Y106.295 E0.02747
G1 X143.656 Y107.095 E0.02747
G1 X143.141 Y107.804 E0.02747
G1 X142.490 Y108.390 E0.02747
G1 X141.731 Y108.829 E0.02747
G1 X140.974 Y109.074 E0.02495
G1 X140.857 Y108.716 F10800.000
G1 F1200
G1 X140.043 Y108.810 E0.02572
G1 X130.010 Y108.810 E0.31456
G1 X129.234 Y108.728 E0.02447
G1 X128.476 Y108.482 E0.02499
G1 X127.786 Y108.084 E0.02499
G1 X127.194 Y107.551 E0.02499
G1 X126.725 Y106.906 E0.02499
G1 X126.401 Y106.178 E0.02499
G1 X126.245 Y105.446 E0.02347
G1 X126.235 Y104.603 E0.02643
G1 X126.401 Y103.822 E0.02503
G1 X126.725 Y103.094 E0.02499
G1 X127.194 Y102.449 E0.02498
G1 X127.786 Y101.916 E0.02499
G1 X128.476 Y101.518 E0.02499
G1 X129.234 Y101.272 E0.02499
G1 X130.010 Y101.190 E0.02447
G1 X140.043 Y101.190 E0.31456
G1 X140.819 Y101.272 E0.02447
G1 X141.577 Y101.518 E0.02499
G1 X142.267 Y101.916 E0.02499
G1 X142.859 Y102.449 E0.02499
G1 X143.327 Y103.094 E0.02498
G1 X143.651 Y103.822 E0.02499
G1 X143.817 Y104.602 E0.02499
G1 X143.817 Y105.398 E0.02498
G1 X143.651 Y106.178 E0.02499
G1 X143.327 Y106.906 E0.02499
G1 X142.859 Y107.551 E0.02498
G1 X142.267 Y108.084 E0.02499
G1 X141.577 Y108.482 E0.02499
G1 X140.915 Y108.697 E0.02183
G1 X140.737 Y109.097 F10800.000
G1 F8640
G1 X140.043 Y108.810 E-0.20303
G1 X137.630 Y108.810 E-0.55697
G1 E-0.04000 F2100.00000
G1 Z0.800 F10800.000
G1 X136.464 Y91.116
G1 Z0.200
G1 E0.80000 F2100.00000
G1 F1200
G1 X159.812 Y91.116 E0.73207
G1 X159.812 Y96.184 E0.15891
G1 X136.464 Y96.184 E0.73207
G1 X136.464 Y91.176 E0.15703
G1 X136.841 Y91.493 F10800.000
G1 F1200
G1 X159.435 Y91.493 E0.70842
G1 X159.435 Y95.807 E0.13527
G1 X136.841 Y95.807 E0.70842
G1 X136.841 Y91.553 E0.13339
G1 X137.218 Y91.870 F10800.000
G1 F1200
G1 X159.058 Y91.870 E0.68478
G1 X159.058 Y95.430 E0.11162
G1 X137.218 Y95.430 E0.68478
G1 X137.218 Y91.930 E0.10974
G1 X137.037 Y91.513 F10800.000
G1 F8640
G1 X140.509 Y91.921 E-0.76000
G1 E-0.04000 F2100.00000
G1 Z0.800 F10800.000
G1 X158.742 Y98.924
G1 Z0.200
G1 E0.80000 F2100.00000
G1 F1200
G1 X158.974 Y98.363 E0.01902
G1 X159.344 Y97.882 E0.01902
G1 X159.825 Y97.513 E0.01902
G1 X160.385 Y97.281 E0.01902
G1 X160.917 Y97.211 E0.01681
G1 X167.056 Y97.211 E0.19250
G1 X167.588 Y97.281 E0.01681
G1 X168.148 Y97.513 E0.01902
G1 X168.629 Y97.882 E0.01902
G1 X168.999 Y98.363 E0.01902
G1 X169.231 Y98.924 E0.01902
G1 X169.310 Y99.525 E0.01902
G1 X169.231 Y100.126 E0.01902
G1 X168.999 Y100.687 E0.01902
G1 X168.629 Y101.168 E0.01902
G1 X168.148 Y101.537 E0.01902
G1 X167.588 Y101.769 E0.01902
G1 X167.056 Y101.839 E0.01681
G1 X160.917 Y101.839 E0.19250
G1 X160.385 Y101.769 E0.01681
G1 X159.825 Y101.537 E0.01902
G1 X159.344 Y101.168 E0.01902
G1 X158.974 Y100.687 E0.01902
G1 X158.742 Y100.126 E0.01902
G1 X158.663 Y99.525 E0.01902
G1 X158.734 Y98.983 E0.01714
G1 X159.108 Y99.032 F10800.000
G1 F1200
G1 X159.304 Y98.553 E0.01622
G1 X159.613 Y98.151 E0.01590
G1 X160.015 Y97.842 E0.01590
G1 X160.484 Y97.648 E0.01590
G1 X160.941 Y97.588 E0.01448
G1 X167.031 Y97.588 E0.19095
G1 X167.489 Y97.648 E0.01448
G1 X167.958 Y97.842 E0.01590
G1 X168.360 Y98.151 E0.01590
G1 X168.669 Y98.553 E0.01590
G1 X168.863 Y99.022 E0.01590
G1 X168.929 Y99.525 E0.01590
G1 X168.863 Y100.028 E0.01590
G1 X168.669 Y100.496 E0.01590
G1 X168.360 Y100.899 E0.01590
G1 X167.958 Y101.208 E0.01590
G1 X167.489 Y101.402 E0.01590
G1 X167.031 Y101.462 E0.01448
G1 X160.941 Y101.462 E0.19095
G1 X160.484 Y101.402 E0.01448
G1 X160.015 Y101.208 E0.01590
G1 X159.613 Y100.899 E0.01590
G1 X159.304 Y100.496 E0.01590
G1 X159.110 Y100.028 E0.01590
G1 X159.043 Y99.525 E0.01590
G1 X159.100 Y99.092 E0.01370
G1 X159.477 Y99.120 F10800.000
G1 F1200
G1 X159.633 Y98.744 E0.01279
G1 X159.881 Y98.420 E0.01279
G1 X160.205 Y98.172 E0.01279
G1 X160.582 Y98.015 E0.01279
G1 X160.966 Y97.965 E0.01215
G1 X167.007 Y97.965 E0.18940
G1 X167.391 Y98.015 E0.01215
G1 X167.768 Y98.172 E0.01279
G1 X168.091 Y98.420 E0.01279
G1 X168.340 Y98.744 E0.01279
G1 X168.496 Y99.120 E0.01279
G1 X168.549 Y99.525 E0.01279
G1 X168.496 Y99.929 E0.01279
G1 X168.340 Y100.306 E0.01279
G1 X168.091 Y100.630 E0.01279
G1 X167.768 Y100.878 E0.01279
G1 X167.391 Y101.034 E0.01279
G1 X167.007 Y101.085 E0.01215
G1 X160.966 Y101.085 E0.18940
G1 X160.582 Y101.034 E0.01215
G1 X160.205 Y100.878 E0.01279
G1 X159.881 Y100.630 E0.01279
G1 X159.633 Y100.306 E0.01279
G1 X159.477 Y99.929 E0.01279
G1 X159.424 Y99.525 E0.01279
G1 X159.469 Y99.180 E0.01091
G1 X159.194 Y98.838 F10800.000
G1 F8640
G1 X159.633 Y98.744 E-0.10764
G1 X159.881 Y98.420 E-0.09419
G1 X160.205 Y98.172 E-0.09419
G1 X160.582 Y98.015 E-0.09419
G1 X160.966 Y97.965 E-0.08946
G1 X162.180 Y97.965 E-0.28032
G1 E-0.04000 F2100.00000
G1 Z0.800 F10800.000
G1 X160.385 Y108.231
G1 Z0.200
G1 E0.80000 F2100.00000
G1 F1200
G1 X160.917 Y108.161 E0.01681
G1 X167.056 Y108.161 E0.19250
G1 X167.588 Y108.231 E0.01681
G1 X168.148 Y108.463 E0.01902
G1 X168.629 Y108.832 E0.01902
G1 X168.999 Y109.313 E0.01902
G1 X169.231 Y109.874 E0.01902
G1 X169.310 Y110.475 E0.01902
G1 X169.231 Y111.076 E0.01902
G1 X168.999 Y111.637 E0.01902
G1 X168.629 Y112.118 E0.01902
G1 X168.148 Y112.487 E0.01902
G1 X167.588 Y112.719 E0.01902
G1 X167.056 Y112.789 E0.01681
G1 X160.917 Y112.789 E0.19250
G1 X160.385 Y112.719 E0.01681
G1 X159.825 Y112.487 E0.01902
G1 X159.344 Y112.118 E0.01902
G1 X158.974 Y111.637 E0.01902
G1 X158.742 Y111.076 E0.01902
G1 X158.663 Y110.475 E0.01902
G1 X158.742 Y109.874 E0.01902
G1 X158.974 Y109.313 E0.01902
G1 X159.344 Y108.832 E0.01902
G1 X159.825 Y108.463 E0.01902
G1 X160.330 Y108.254 E0.01714
G1 X160.474 Y108.602 F10800.000
G1 F1200
G1 X160.941 Y108.538 E0.01479
G1 X167.031 Y108.538 E0.19095
G1 X167.489 Y108.598 E0.01448
G1 X167.958 Y108.792 E0.01590
G1 X168.360 Y109.101 E0.01590
G1 X168.669 Y109.504 E0.01590
G1 X168.863 Y109.972 E0.01590
G1 X168.929 Y110.475 E0.01590
G1 X168.863 Y110.978 E0.01590
G1 X168.669 Y111.447 E0.01590
G1 X168.360 Y111.849 E0.01590
G1 X167.958 Y112.158 E0.01590
G1 X167.489 Y112.352 E0.01590
G1 X167.031 Y112.412 E0.01448
G1 X160.941 Y112.412 E0.19095
G1 X160.484 Y112.352 E0.01448
G1 X160.015 Y112.158 E0.01590
G1 X159.613 Y111.849 E0.01590
G1 X159.304 Y111.447 E0.01590
G1 X159.110 Y110.978 E0.01590
G1 X159.043 Y110.475 E0.01590
G1 X159.110 Y109.972 E0.01590
G1 X159.304 Y109.504 E0.01590
G1 X159.613 Y109.101 E0.01590
G1 X160.015 Y108.792 E0.01590
G1 X160.419 Y108.625 E0.01370
G1 X160.582 Y108.966 F10800.000
G1 F1200
G1 X160.966 Y108.915 E0.01215
G1 X167.007 Y108.915 E0.18940
G1 X167.391 Y108.966 E0.01215
G1 X167.768 Y109.122 E0.01279
G1 X168.091 Y109.370 E0.01279
G1 X168.340 Y109.694 E0.01279
G1 X168.496 Y110.071 E0.01279
G1 X168.549 Y110.475 E0.01279
G1 X168.496 Y110.880 E0.01279
G1 X168.340 Y111.256 E0.01279
G1 X168.091 Y111.580 E0.01279
G1 X167.768 Y111.828 E0.01279
G1 X167.391 Y111.985 E0.01279
G1 X167.007 Y112.035 E0.01215
G1 X160.966 Y112.035 E0.18940
G1 X160.582 Y111.985 E0.01215
G1 X160.205 Y111.828 E0.01279
G1 X159.881 Y111.580 E0.01279
G1 X159.633 Y111.256 E0.01279
G1 X159.477 Y110.880 E0.01279
G1 X159.424 Y110.475 E0.01279
G1 X159.477 Y110.071 E0.01279
G1 X159.633 Y109.694 E0.01279
G1 X159.881 Y109.370 E0.01279
G1 X160.205 Y109.122 E0.01279
G1 X160.527 Y108.989 E0.01091
G1 X160.682 Y108.591 F10800.000
G1 F8640
G1 X160.966 Y108.915 E-0.10291
G1 X163.812 Y108.915 E-0.65709
G1 E-0.04000 F2100.00000
G1 Z0.800 F10800.000
G1 X104.530 Y105.225
G1 Z0.200
G1 E0.80000 F2100.00000
G1 F1200
G1 X104.399 Y106.323 E0.03466
G1 X104.082 Y107.387 E0.03481
G1 X103.589 Y108.381 E0.03481
G1 X102.933 Y109.278 E0.03481
G1 X102.135 Y110.049 E0.03481
G1 X101.226 Y110.668 E0.03448
G1 X100.205 Y111.135 E0.03518
G1 X99.132 Y111.416 E0.03478
G1 X98.026 Y111.510 E0.03481
G1 X96.920 Y111.416 E0.03481
G1 X95.846 Y111.134 E0.03482
G1 X94.835 Y110.674 E0.03482
G1 X93.919 Y110.051 E0.03475
G1 X93.192 Y109.353 E0.03160
G1 X92.467 Y108.387 E0.03789
G1 X91.971 Y107.387 E0.03500
G1 X91.653 Y106.323 E0.03481
G1 X91.522 Y105.225 E0.03466
G1 X91.565 Y104.221 E0.03150
G1 X91.789 Y103.138 E0.03467
G1 X92.196 Y102.105 E0.03481
G1 X92.773 Y101.157 E0.03481
G1 X93.502 Y100.320 E0.03481
G1 X94.363 Y99.619 E0.03481
G1 X95.331 Y99.074 E0.03482
G1 X96.377 Y98.702 E0.03482
G1 X97.471 Y98.513 E0.03482
G1 X98.581 Y98.513 E0.03480
G1 X99.675 Y98.702 E0.03482
G1 X100.722 Y99.074 E0.03482
G1 X101.688 Y99.618 E0.03475
G1 X102.472 Y100.251 E0.03159
G1 X103.277 Y101.151 E0.03788
G1 X103.856 Y102.105 E0.03500
G1 X104.263 Y103.138 E0.03481
G1 X104.488 Y104.221 E0.03467
G1 X104.528 Y105.165 E0.02962
G1 X104.151 Y105.181 F10800.000
G1 F1200
G1 X104.029 Y106.246 E0.03361
G1 X103.730 Y107.248 E0.03278
G1 X103.265 Y108.185 E0.03279
G1 X102.648 Y109.029 E0.03279
G1 X101.896 Y109.756 E0.03279
G1 X101.037 Y110.341 E0.03259
G1 X100.904 Y110.405 E0.00463
G1 X100.079 Y110.778 E0.02838
G1 X99.068 Y111.043 E0.03277
G1 X98.026 Y111.132 E0.03278
G1 X96.984 Y111.043 E0.03278
G1 X95.973 Y110.778 E0.03279
G1 X95.021 Y110.344 E0.03279
G1 X94.158 Y109.757 E0.03275
G1 X93.475 Y109.102 E0.02964
G1 X92.789 Y108.188 E0.03584
G1 X92.323 Y107.248 E0.03290
G1 X92.024 Y106.246 E0.03278
G1 X91.900 Y105.211 E0.03269
G1 X91.940 Y104.268 E0.02959
G1 X92.152 Y103.247 E0.03270
G1 X92.535 Y102.274 E0.03279
G1 X93.078 Y101.380 E0.03279
G1 X93.765 Y100.592 E0.03279
G1 X94.576 Y99.931 E0.03279
G1 X95.488 Y99.419 E0.03279
G1 X96.473 Y99.068 E0.03279
G1 X97.504 Y98.890 E0.03279
G1 X98.549 Y98.890 E0.03278
G1 X99.580 Y99.068 E0.03279
G1 X100.565 Y99.419 E0.03279
G1 X101.475 Y99.931 E0.03275
G1 X102.211 Y100.525 E0.02964
G1 X102.973 Y101.377 E0.03583
G1 X103.517 Y102.274 E0.03290
G1 X103.901 Y103.247 E0.03279
G1 X104.112 Y104.268 E0.03270
G1 X104.148 Y105.121 E0.02678
G1 X103.772 Y105.137 F10800.000
G1 F1200
G1 X103.658 Y106.169 E0.03255
G1 X103.378 Y107.109 E0.03076
G1 X102.942 Y107.988 E0.03076
G1 X102.363 Y108.780 E0.03076
G1 X101.657 Y109.462 E0.03076
G1 X100.848 Y110.013 E0.03069
G1 X100.744 Y110.063 E0.00361
G1 X99.953 Y110.421 E0.02724
G1 X99.004 Y110.670 E0.03076
G1 X98.026 Y110.753 E0.03076
G1 X97.049 Y110.670 E0.03076
G1 X96.100 Y110.421 E0.03077
G1 X95.206 Y110.015 E0.03077
G1 X94.396 Y109.463 E0.03075
G1 X93.758 Y108.851 E0.02769
G1 X93.111 Y107.989 E0.03379
G1 X92.675 Y107.109 E0.03080
G1 X92.395 Y106.169 E0.03076
G1 X92.278 Y105.196 E0.03073
G1 X92.316 Y104.314 E0.02767
G1 X92.515 Y103.355 E0.03073
G1 X92.874 Y102.442 E0.03076
G1 X93.384 Y101.603 E0.03076
G1 X94.028 Y100.864 E0.03076
G1 X94.789 Y100.244 E0.03077
G1 X95.644 Y99.763 E0.03077
G1 X96.569 Y99.434 E0.03077
G1 X97.536 Y99.268 E0.03077
G1 X98.517 Y99.268 E0.03075
G1 X99.484 Y99.434 E0.03077
G1 X100.408 Y99.763 E0.03077
G1 X101.263 Y100.244 E0.03075
G1 X101.950 Y100.799 E0.02769
G1 X102.668 Y101.602 E0.03379
G1 X103.178 Y102.442 E0.03080
G1 X103.538 Y103.355 E0.03076
G1 X103.737 Y104.314 E0.03073
G1 X103.769 Y105.077 E0.02394
G1 X104.112 Y105.347 F10800.000
G1 F8640
G1 X103.658 Y106.169 E-0.25344
G1 X103.378 Y107.109 E-0.22652
G1 X102.942 Y107.988 E-0.22654
G1 X102.805 Y108.175 E-0.05350
G1 E-0.04000 F2100.00000
G1 Z0.800 F10800.000
G1 X180.910 Y118.936
G1 Z0.200
G1 E0.80000 F2100.00000
M73 Q1 S92
G1 F1200
G1 X69.040 Y118.936 E3.50761
M73 P1 R91
G1 X68.554 Y118.882 E0.01532
